X:1
T:My Melancholy Baby
T:My Melancholy Baby
T:Ernie Burnett
T:George A.Norton
C:Ernie Burnett
Z:All Rights Reserved
L:1/8
M:4/4
K:F
V:1 treble 
%%MIDI program 4
V:1
"F" Ac A2"C7" ^G4 |"F" Ac A2"C7" ^G4 |"F" Acde gecA | c2 =B2"C7" _B4 |"Gm" Bd B2"D7" A4 | %5
w: Come sweet- heart mine|don't sit and pine|tell me of the cares that make you|feel so blue|what have I done?|
w: Birds in the trees|whis- per- ing breeze|should not fail to lull you in- to|peace- ful dreams|so tell me why|
"Gm" Bd B2"D7" A4 |"G7" GA=Bc d^cde |"C7" d2 _d2 c4 |"F" Ac A2"C7" ^G4 |"F" Ac A2"C7" ^G4 | %10
w: an- swer me hon|have I ev- er said an un- kind|word to you?|my love is true|and just for you|
w: sad- ly you sigh|sit- ting at the win- dow where the|pale moon beams|you should- nt- grieve|try and be- lieve|
"F" Acde gfcA |"C7" c2 =B2 _B4 |"G7" =Bc ^c2 d4 |"C" cd ^d2"A7" e4 |"D7" dede"G7" d=BAG | %15
w: I'd do al- most an- y- thing at|an- y time|dear when you sigh|or when you cry|some- thing seems to grip this ver- y|
w: life is al- ways sun- shine when the|heart beats true|Be of good cheer|smile through your tears|when you're sad it makes me feel the|
"C7" d2 _d2 c4 ::"F" AB=Bc gfcB |"D7" B4 A4 |"Gm" AG^FG B2 e2 | d6 z2 |"C7" GABc dfed | A4 G4 | %22
w: heart of mine|Come to me my mel- an- chol- y|ba- by|cud- dle up and don't be|blue|all your fears are fool- ish fan- cy|may- be|
w: same as you|||||||
"F" GFEF GFGA | c6 z2 | AB=Bc gfcB |"D7" B4 A4 |"Gm" AG^FG B2 e2 | d6 z2 |"Bb" d^cde f2 ed | %29
w: you know dear that I'm in love with|you|ev- ry cloud must have a sil- ver|lin- ing|wait un- til the sun shines|through|Smile my hon- ey dear while I|
w: |||||||
"F" c=Bc^c"D7" d3 A |"C7" Bc^cd AcAG |1"F" F2 c2 d2 c2 :|2"F" F6 f2 |] %33
w: kiss a- way each tear or|else I shall be mel- an- chol- y|too. Now won't you|too *|
w: ||||

